src/images/logo-guardian-developers.svg

<?xml version="1.0" encoding="UTF-8" standalone="no"?>
<svg width="380px" height="36px" viewBox="0 0 380 36" version="1.1" xmlns="http://www.w3.org/2000/svg" xmlns:xlink="http://www.w3.org/1999/xlink" xmlns:sketch="http://www.bohemiancoding.com/sketch/ns">
    <title>logo-guardiandevelopers</title>
    <description>Created with Sketch (http://www.bohemiancoding.com/sketch)</description>
    <defs></defs>
    <g id="Page-1" stroke="none" stroke-width="1" fill="none" fill-rule="evenodd" sketch:type="MSPage">
        <path d="M2.8165,21.98925 C2.8165,25.8865 4.5195,27.49125 8.15475,27.49125 C10.05425,27.49125 12.1175,27 13.13275,26.4105 L13.13275,24.0525 C12.67425,24.118 11.82275,24.1835 11.16775,24.1835 C9.39925,24.1835 8.908,23.2665 8.908,21.46525 L8.908,11.804 L12.9035,11.804 L12.9035,8.66 L8.908,8.66 L8.908,4.36975 L2.8165,5.22125 L2.8165,8.66 L0,9.053 L0,11.804 L2.8165,11.804 L2.8165,21.98925 Z M13.46025,27 L23.48175,27 L23.48175,25.32975 L21.5495,24.41275 L21.5495,12.36075 C22.30275,12.066 23.1215,11.8695 24.0385,11.8695 C25.70875,11.8695 26.49475,12.55725 26.49475,14.45675 L26.49475,24.41275 L24.5625,25.32975 L24.5625,27 L34.584,27 L34.584,25.32975 L32.58625,24.41275 L32.58625,13.08125 C32.58625,9.708 31.047,8.2015 28.00125,8.2015 C25.51225,8.2015 23.28525,9.08575 21.64775,10.59225 L21.45125,10.59225 L21.45125,0.37425 L20.96,0.37425 L13.362,1.586 L13.362,3.19075 L15.458,4.1405 L15.458,24.41275 L13.46025,25.32975 L13.46025,27 Z M52.4655,18.38675 C52.4655,10.6905 49.81275,8.23425 44.31075,8.23425 C38.8415,8.23425 35.27175,11.7385 35.27175,17.79725 C35.27175,24.01975 38.514,27.49125 44.802,27.49125 C48.17525,27.49125 50.92625,25.98475 51.77775,24.80575 L51.77775,23.03725 C50.5005,23.43025 49.1905,23.6595 46.86525,23.6595 C43.52475,23.6595 41.82175,21.9565 41.527,18.38675 L52.4655,18.38675 Z M44.2125,10.232 C45.719,10.232 46.53775,11.018 46.53775,15.89775 L41.4615,16.1925 C41.527,11.31275 42.54225,10.232 44.2125,10.232 Z M65.762,22.97175 L59.212,22.97175 C58.4915,22.97175 57.902,22.44775 57.902,21.79275 C57.902,21.3015 58.26225,20.7775 58.72075,20.45 C59.70325,20.74475 60.522,20.81025 61.73375,20.81025 C66.44975,20.81025 69.692,18.6815 69.692,14.686 C69.692,12.88475 68.93875,11.8695 67.7925,10.8215 L67.7925,10.6905 L70.83825,11.77125 L71.264,11.77125 L71.264,8.136 L70.90375,8.136 L66.2205,9.053 L65.9585,9.053 C64.81225,8.62725 63.2075,8.16875 61.73375,8.16875 C57.01775,8.16875 53.74275,10.52675 53.74275,14.4895 C53.74275,16.913 54.9545,18.71425 56.7885,19.7295 L56.7885,19.926 C55.7405,20.6465 53.71,22.18575 53.71,24.118 C53.71,25.559 54.65975,26.96725 56.62475,27.393 L56.62475,27.5895 C54.5615,28.01525 52.23625,28.703 52.23625,31.09375 C52.23625,33.55 55.77325,35.35125 61.53725,35.35125 C68.7095,35.35125 71.82075,32.60025 71.82075,28.2445 C71.82075,24.642 69.823,22.97175 65.762,22.97175 Z M61.701,33.05875 C58.3605,33.05875 57.21425,31.87975 57.21425,30.6025 C57.21425,29.71825 57.4435,29.096 57.93475,28.53925 L64.35375,28.53925 C65.86025,28.53925 66.548,28.99775 66.548,29.9475 C66.548,31.847 65.5,33.05875 61.701,33.05875 Z M61.73375,10.26475 C63.0765,10.26475 63.928,10.8215 63.928,14.4895 C63.928,18.1575 63.04375,18.5505 61.73375,18.5505 C60.42375,18.5505 59.57225,18.223 59.57225,14.4895 C59.57225,10.756 60.42375,10.26475 61.73375,10.26475 Z M73.753,21.66175 C73.753,24.8385 75.325,27.49125 79.02575,27.49125 C81.482,27.49125 83.41425,26.4105 84.59325,24.9695 L84.8225,24.9695 L84.8225,27.393 L85.31375,27.393 L92.748,26.57425 L92.748,25.00225 L90.68475,23.9215 L90.68475,8.23425 L90.1935,8.23425 L82.56275,9.446 L82.56275,11.11625 L84.59325,12.066 L84.59325,23.201 C83.971,23.463 83.41425,23.62675 82.399,23.62675 C80.85975,23.62675 79.8445,23.2665 79.8445,21.1705 L79.8445,8.23425 L79.3205,8.23425 L71.68975,9.446 L71.68975,11.11625 L73.753,12.066 L73.753,21.66175 Z M98.774,10.65775 C99.167,10.625 100.05125,10.59225 100.346,10.59225 C102.704,10.59225 103.39175,11.77125 103.39175,14.0965 L103.39175,16.55275 L99.8875,17.14225 C95.8265,17.83 93.403,18.58325 93.403,22.3495 C93.403,25.39525 95.4335,27.49125 98.67575,27.49125 C100.96825,27.49125 103.12975,26.50875 103.9485,24.87125 L104.11225,24.87125 C104.407,26.83625 106.11,27.4585 108.0095,27.4585 C109.48325,27.4585 110.85875,27.03275 111.44825,26.70525 L111.44825,25.32975 L109.516,24.41275 L109.516,13.769 C109.516,9.6425 106.5685,8.2015 101.656,8.2015 C98.4465,8.2015 96.38325,9.053 94.6475,9.60975 L94.6475,14.39125 L97.49675,14.39125 L98.774,10.65775 Z M103.39175,23.463 C103.06425,23.82325 102.3765,24.15075 101.7215,24.15075 C100.5425,24.15075 99.429,23.49575 99.429,21.46525 C99.429,19.7295 100.57525,18.77975 101.9835,18.64875 L103.39175,18.51775 L103.39175,23.463 Z M111.71025,9.34775 L111.71025,11.018 L113.74075,11.96775 L113.74075,24.38 L111.8085,25.297 L111.8085,27 L122.354,27 L122.354,25.297 L119.83225,24.38 L119.83225,14.19475 C120.88025,13.7035 122.25575,13.53975 123.89325,13.53975 C124.41725,13.53975 125.07225,13.60525 125.4325,13.7035 L125.4325,8.36525 C125.236,8.29975 124.843,8.267 124.5155,8.267 C122.51775,8.267 120.88025,9.577 119.7995,12.0005 L119.603,12.0005 L119.603,8.136 L119.079,8.136 L111.71025,9.34775 Z M137.812,9.02025 C137.05875,8.49625 135.87975,8.267 134.8645,8.267 C130.0175,8.267 125.92375,10.91975 125.92375,18.32125 C125.92375,25.3625 129.91925,27.49125 133.25975,27.49125 C135.55225,27.49125 137.12425,26.476 137.8775,25.4935 L138.074,25.4935 L138.074,27.393 L138.598,27.393 L145.83575,26.57425 L145.83575,25.00225 L143.9035,23.9215 L143.9035,0.7345 L143.41225,0.7345 L135.7815,1.94625 L135.7815,3.6165 L137.812,4.5335 L137.812,9.02025 Z M137.812,23.856 C137.38625,24.01975 136.86225,24.1835 135.94525,24.1835 C133.52175,24.1835 132.3755,22.2185 132.3755,17.699 C132.3755,12.5245 133.8165,10.78875 135.74875,10.78875 C136.8295,10.78875 137.3535,11.0835 137.812,11.44375 L137.812,23.856 Z M146.09775,9.34775 L146.09775,11.018 L148.161,11.96775 L148.161,24.38 L146.196,25.297 L146.196,27 L156.2175,27 L156.2175,25.297 L154.2525,24.38 L154.2525,8.136 L153.76125,8.136 L146.09775,9.34775 Z M151.1085,0.6035 C149.30725,0.6035 147.86625,2.0445 147.86625,3.84575 C147.86625,5.61425 149.30725,7.05525 151.1085,7.05525 C152.877,7.05525 154.35075,5.61425 154.35075,3.84575 C154.35075,2.0445 152.877,0.6035 151.1085,0.6035 Z M162.27625,10.65775 C162.66925,10.625 163.5535,10.59225 163.84825,10.59225 C166.20625,10.59225 166.894,11.77125 166.894,14.0965 L166.894,16.55275 L163.38975,17.14225 C159.32875,17.83 156.90525,18.58325 156.90525,22.3495 C156.90525,25.39525 158.93575,27.49125 162.178,27.49125 C164.4705,27.49125 166.632,26.50875 167.45075,24.87125 L167.6145,24.87125 C167.90925,26.83625 169.61225,27.4585 171.51175,27.4585 C172.9855,27.4585 174.361,27.03275 174.9505,26.70525 L174.9505,25.32975 L173.01825,24.41275 L173.01825,13.769 C173.01825,9.6425 170.07075,8.2015 165.15825,8.2015 C161.94875,8.2015 159.8855,9.053 158.14975,9.60975 L158.14975,14.39125 L160.999,14.39125 L162.27625,10.65775 Z M166.894,23.463 C166.5665,23.82325 165.87875,24.15075 165.22375,24.15075 C164.04475,24.15075 162.93125,23.49575 162.93125,21.46525 C162.93125,19.7295 164.0775,18.77975 165.48575,18.64875 L166.894,18.51775 L166.894,23.463 Z M175.31075,27 L185.33225,27 L185.33225,25.32975 L183.4,24.41275 L183.4,12.36075 C184.15325,12.066 184.972,11.8695 185.889,11.8695 C187.55925,11.8695 188.34525,12.55725 188.34525,14.45675 L188.34525,24.41275 L186.413,25.32975 L186.413,27 L196.4345,27 L196.4345,25.32975 L194.43675,24.41275 L194.43675,13.08125 C194.43675,9.708 192.8975,8.2015 189.85175,8.2015 C187.36275,8.2015 185.13575,9.08575 183.49825,10.59225 L183.30175,10.59225 L183.30175,8.2015 L182.8105,8.2015 L175.2125,9.41325 L175.2125,11.018 L177.3085,11.96775 L177.3085,24.41275 L175.31075,25.32975 L175.31075,27 Z" id="theguardian" fill="#FFFFFF" sketch:type="MSShapeGroup"></path>
        <path d="M201.64175,27.4585 C203.6395,27.4585 205.015,25.8865 205.015,24.08525 C205.015,22.2185 203.6395,20.712 201.64175,20.712 C199.644,20.712 198.2685,22.2185 198.2685,24.08525 C198.2685,25.8865 199.644,27.4585 201.64175,27.4585 Z M218.032,9.02025 C217.27875,8.49625 216.09975,8.267 215.0845,8.267 C210.2375,8.267 206.14375,10.91975 206.14375,18.32125 C206.14375,25.3625 210.13925,27.49125 213.47975,27.49125 C215.77225,27.49125 217.34425,26.476 218.0975,25.4935 L218.294,25.4935 L218.294,27.393 L218.818,27.393 L226.05575,26.57425 L226.05575,25.00225 L224.1235,23.9215 L224.1235,0.7345 L223.63225,0.7345 L216.0015,1.94625 L216.0015,3.6165 L218.032,4.5335 L218.032,9.02025 Z M218.032,23.856 C217.60625,24.01975 217.08225,24.1835 216.16525,24.1835 C213.74175,24.1835 212.5955,22.2185 212.5955,17.699 C212.5955,12.5245 214.0365,10.78875 215.96875,10.78875 C217.0495,10.78875 217.5735,11.0835 218.032,11.44375 L218.032,23.856 Z M243.74075,18.38675 C243.74075,10.6905 241.088,8.23425 235.586,8.23425 C230.11675,8.23425 226.547,11.7385 226.547,17.79725 C226.547,24.01975 229.78925,27.49125 236.07725,27.49125 C239.4505,27.49125 242.2015,25.98475 243.053,24.80575 L243.053,23.03725 C241.77575,23.43025 240.46575,23.6595 238.1405,23.6595 C234.8,23.6595 233.097,21.9565 232.80225,18.38675 L243.74075,18.38675 Z M235.48775,10.232 C236.99425,10.232 237.813,11.018 237.813,15.89775 L232.73675,16.1925 C232.80225,11.31275 233.8175,10.232 235.48775,10.232 Z M252.25575,11.28 L254.22075,10.363 L254.22075,8.66 L243.577,8.66 L243.577,10.363 L245.542,11.28 L250.94575,27 L256.2185,27 L261.75325,11.28 L263.71825,10.363 L263.71825,8.66 L256.51325,8.66 L256.51325,10.363 L258.47825,11.28 L255.3015,21.367 L255.1705,21.367 L252.25575,11.28 Z M280.912,18.38675 C280.912,10.6905 278.25925,8.23425 272.75725,8.23425 C267.288,8.23425 263.71825,11.7385 263.71825,17.79725 C263.71825,24.01975 266.9605,27.49125 273.2485,27.49125 C276.62175,27.49125 279.37275,25.98475 280.22425,24.80575 L280.22425,23.03725 C278.947,23.43025 277.637,23.6595 275.31175,23.6595 C271.97125,23.6595 270.26825,21.9565 269.9735,18.38675 L280.912,18.38675 Z M272.659,10.232 C274.1655,10.232 274.98425,11.018 274.98425,15.89775 L269.908,16.1925 C269.9735,11.31275 270.98875,10.232 272.659,10.232 Z M281.567,1.9135 L281.567,3.58375 L283.63025,4.5335 L283.63025,24.38 L281.66525,25.297 L281.66525,27 L291.68675,27 L291.68675,25.297 L289.72175,24.38 L289.72175,0.70175 L289.2305,0.70175 L281.567,1.9135 Z M301.90475,8.2015 C296.33725,8.2015 292.5055,11.6075 292.5055,17.83 C292.5055,24.0525 296.33725,27.49125 301.90475,27.49125 C307.47225,27.49125 311.304,24.0525 311.304,17.83 C311.304,11.6075 307.47225,8.2015 301.90475,8.2015 Z M301.9375,24.93675 C299.907,24.93675 298.89175,23.88875 298.89175,17.83 C298.89175,11.77125 299.907,10.72325 301.9375,10.72325 C303.968,10.72325 304.91775,11.77125 304.91775,17.83 C304.91775,23.88875 303.968,24.93675 301.9375,24.93675 Z M320.081,10.59225 L320.081,8.2015 L319.58975,8.2015 L311.99175,9.41325 L311.99175,11.018 L314.055,11.96775 L314.055,32.40375 L312.09,33.32075 L312.09,35.02375 L322.439,35.02375 L322.439,33.32075 L320.1465,32.40375 L320.1465,26.90175 C320.736,27.16375 321.35825,27.4585 322.832,27.4585 C327.64625,27.4585 331.83825,24.9695 331.83825,17.5025 C331.83825,10.232 328.858,8.2015 325.2555,8.2015 C322.8975,8.2015 321.29275,9.3805 320.2775,10.59225 L320.081,10.59225 Z M322.07875,24.904 C321.22725,24.904 320.57225,24.60925 320.1465,24.3145 L320.1465,12.328 C320.6705,12.066 321.26,11.83675 322.27525,11.83675 C324.24025,11.83675 325.452,13.67075 325.452,17.92825 C325.452,23.16825 323.97825,24.904 322.07875,24.904 Z M350.0145,18.38675 C350.0145,10.6905 347.36175,8.23425 341.85975,8.23425 C336.3905,8.23425 332.82075,11.7385 332.82075,17.79725 C332.82075,24.01975 336.063,27.49125 342.351,27.49125 C345.72425,27.49125 348.47525,25.98475 349.32675,24.80575 L349.32675,23.03725 C348.0495,23.43025 346.7395,23.6595 344.41425,23.6595 C341.07375,23.6595 339.37075,21.9565 339.076,18.38675 L350.0145,18.38675 Z M341.7615,10.232 C343.268,10.232 344.08675,11.018 344.08675,15.89775 L339.0105,16.1925 C339.076,11.31275 340.09125,10.232 341.7615,10.232 Z M350.604,9.34775 L350.604,11.018 L352.6345,11.96775 L352.6345,24.38 L350.70225,25.297 L350.70225,27 L361.24775,27 L361.24775,25.297 L358.726,24.38 L358.726,14.19475 C359.774,13.7035 361.1495,13.53975 362.787,13.53975 C363.311,13.53975 363.966,13.60525 364.32625,13.7035 L364.32625,8.36525 C364.12975,8.29975 363.73675,8.267 363.40925,8.267 C361.4115,8.267 359.774,9.577 358.69325,12.0005 L358.49675,12.0005 L358.49675,8.136 L357.97275,8.136 L350.604,9.34775 Z M371.26925,27.4585 C377.09875,27.4585 379.52225,24.8385 379.52225,21.00675 C379.52225,18.223 378.1795,15.865 374.6425,15.11175 L372.481,14.65325 C370.4505,14.2275 369.95925,13.5725 369.95925,12.49175 C369.95925,11.37825 370.94175,10.6905 372.38275,10.6905 C373.36525,10.6905 374.6425,10.91975 375.06825,11.149 L375.85425,13.67075 L378.40875,13.67075 L378.40875,9.15125 C376.96775,8.529 374.7735,8.2015 372.612,8.2015 C367.20825,8.2015 364.8175,10.78875 364.8175,14.293 C364.8175,17.01125 366.3895,19.69675 369.76275,20.45 L371.98975,20.94125 C373.95475,21.367 374.41325,21.92375 374.41325,23.2665 C374.41325,24.7075 373.2015,25.1005 371.46575,25.1005 C370.41775,25.1005 368.944,24.904 368.51825,24.511 L367.47025,21.46525 L364.883,21.46525 L364.883,26.31225 C366.6515,27.0655 369.30425,27.4585 371.26925,27.4585 Z" id=".developers" fill="#0ABCD2" sketch:type="MSShapeGroup"></path>
    </g>
</svg>

<svg width="371" height="36" viewBox="0 0 371 36" xmlns="http://www.w3.org/2000/svg">
	<path d="M2.817 21.989c0 3.897 1.703 5.502 5.338 5.502 1.899 0 3.963-.491 4.978-1.081v-2.358c-.458.066-1.31.131-1.965.131-1.768 0-2.26-.917-2.26-2.718v-9.661h3.995v-3.144h-3.995v-4.29l-6.091.852v3.439l-2.817.393v2.751h2.817v10.185zm10.644 5.011h10.022v-1.67l-1.932-.917v-12.052c.753-.295 1.572-.491 2.489-.491 1.67 0 2.456.688 2.456 2.587v9.956l-1.932.917v1.67h10.022v-1.67l-1.998-.917v-11.331c0-3.373-1.539-4.88-4.585-4.88-2.489 0-4.716.884-6.354 2.391h-.196v-10.218h-.491l-7.598 1.212v1.605l2.096.95v20.272l-1.998.917v1.67zm39.005-8.613c0-7.696-2.653-10.152-8.155-10.152-5.469 0-9.039 3.504-9.039 9.563 0 6.223 3.242 9.694 9.53 9.694 3.373 0 6.124-1.507 6.976-2.686v-1.768c-1.277.393-2.587.622-4.912.622-3.341 0-5.044-1.703-5.338-5.273h10.938zm-8.253-8.155c1.507 0 2.325.786 2.325 5.666l-5.076.295c.066-4.88 1.081-5.96 2.751-5.96zm21.55 12.74h-6.55c-.721 0-1.31-.524-1.31-1.179 0-.491.36-1.015.819-1.343.982.295 1.801.36 3.013.36 4.716 0 7.958-2.129 7.958-6.124 0-1.801-.753-2.816-1.899-3.864v-.131l3.046 1.081h.426v-3.635h-.36l-4.683.917h-.262c-1.146-.426-2.751-.884-4.225-.884-4.716 0-7.991 2.358-7.991 6.321 0 2.424 1.212 4.225 3.046 5.24v.196c-1.048.721-3.078 2.26-3.078 4.192 0 1.441.95 2.849 2.915 3.275v.197c-2.063.426-4.389 1.113-4.389 3.504 0 2.456 3.537 4.258 9.301 4.258 7.172 0 10.284-2.751 10.284-7.107 0-3.602-1.998-5.273-6.059-5.273zm-4.061 10.087c-3.34 0-4.487-1.179-4.487-2.456 0-.884.229-1.506.721-2.063h6.419c1.506 0 2.194.459 2.194 1.408 0 1.899-1.048 3.111-4.847 3.111zm.033-22.794c1.343 0 2.194.557 2.194 4.225 0 3.668-.884 4.061-2.194 4.061s-2.162-.328-2.162-4.061.852-4.225 2.162-4.225zm12.019 11.397c0 3.177 1.572 5.829 5.273 5.829 2.456 0 4.388-1.081 5.567-2.522h.229v2.424h.491l7.434-.819v-1.572l-2.063-1.081v-15.687h-.491l-7.631 1.212v1.67l2.031.95v11.135c-.622.262-1.179.426-2.194.426-1.539 0-2.555-.36-2.555-2.456v-12.936h-.524l-7.631 1.212v1.67l2.063.95v9.596zm25.021-11.004c.393-.033 1.277-.066 1.572-.066 2.358 0 3.046 1.179 3.046 3.504v2.456l-3.504.59c-4.061.688-6.484 1.441-6.484 5.207 0 3.046 2.03 5.142 5.273 5.142 2.293 0 4.454-.983 5.273-2.62h.164c.295 1.965 1.998 2.587 3.897 2.587 1.474 0 2.849-.426 3.439-.753v-1.375l-1.932-.917v-10.644c0-4.127-2.948-5.568-7.86-5.568-3.21 0-5.273.852-7.009 1.408v4.781h2.849l1.277-3.733zm4.618 12.805c-.328.36-1.015.688-1.67.688-1.179 0-2.293-.655-2.293-2.685 0-1.736 1.146-2.686 2.555-2.817l1.408-.131v4.945zm8.319-14.115v1.67l2.031.95v12.412l-1.932.917v1.703h10.546v-1.703l-2.522-.917v-10.185c1.048-.491 2.424-.655 4.061-.655.524 0 1.179.066 1.539.164v-5.338c-.197-.066-.59-.098-.917-.098-1.998 0-3.635 1.31-4.716 3.734h-.197v-3.865h-.524l-7.369 1.212zm26.102-.327c-.753-.524-1.932-.753-2.948-.753-4.847 0-8.941 2.653-8.941 10.054 0 7.041 3.996 9.17 7.336 9.17 2.292 0 3.864-1.015 4.618-1.998h.197v1.899h.524l7.238-.819v-1.572l-1.932-1.081v-23.187h-.491l-7.631 1.212v1.67l2.031.917v4.487zm0 14.836c-.426.164-.95.327-1.867.327-2.423 0-3.57-1.965-3.57-6.484 0-5.175 1.441-6.91 3.373-6.91 1.081 0 1.605.295 2.063.655v12.412zm8.286-14.508v1.67l2.063.95v12.412l-1.965.917v1.703h10.022v-1.703l-1.965-.917v-16.244h-.491l-7.663 1.212zm5.011-8.744c-1.801 0-3.242 1.441-3.242 3.242 0 1.769 1.441 3.21 3.242 3.21 1.769 0 3.242-1.441 3.242-3.21 0-1.801-1.474-3.242-3.242-3.242zm11.168 10.054c.393-.033 1.277-.066 1.572-.066 2.358 0 3.046 1.179 3.046 3.504v2.456l-3.504.59c-4.061.688-6.484 1.441-6.484 5.207 0 3.046 2.031 5.142 5.273 5.142 2.292 0 4.454-.983 5.273-2.62h.164c.295 1.965 1.998 2.587 3.897 2.587 1.474 0 2.849-.426 3.439-.753v-1.375l-1.932-.917v-10.644c0-4.127-2.947-5.568-7.86-5.568-3.21 0-5.273.852-7.008 1.408v4.781h2.849l1.277-3.733zm4.618 12.805c-.328.36-1.015.688-1.67.688-1.179 0-2.292-.655-2.292-2.685 0-1.736 1.146-2.686 2.554-2.817l1.408-.131v4.945zm8.417 3.537h10.021v-1.67l-1.932-.917v-12.052c.753-.295 1.572-.491 2.489-.491 1.67 0 2.456.688 2.456 2.587v9.956l-1.932.917v1.67h10.022v-1.67l-1.998-.917v-11.331c0-3.373-1.539-4.88-4.585-4.88-2.489 0-4.716.884-6.353 2.391h-.197v-2.391h-.491l-7.598 1.212v1.605l2.096.95v12.445l-1.998.917v1.67z" fill="#FFF"/>
	<path d="M209.011 9.02c-.753-.524-1.932-.753-2.948-.753-4.847 0-8.941 2.653-8.941 10.054 0 7.041 3.995 9.17 7.336 9.17 2.293 0 3.865-1.015 4.618-1.998h.197v1.899h.524l7.238-.819v-1.572l-1.932-1.081v-23.187h-.491l-7.631 1.212v1.67l2.031.917v4.487zm0 14.836c-.426.164-.95.327-1.867.327-2.424 0-3.57-1.965-3.57-6.484 0-5.175 1.441-6.91 3.373-6.91 1.081 0 1.605.295 2.063.655v12.412zm25.709-5.469c0-7.696-2.653-10.152-8.155-10.152-5.469 0-9.039 3.504-9.039 9.563 0 6.223 3.242 9.694 9.53 9.694 3.373 0 6.124-1.507 6.976-2.686v-1.768c-1.277.393-2.587.622-4.912.622-3.34 0-5.043-1.703-5.338-5.273h10.938zm-8.253-8.155c1.506 0 2.325.786 2.325 5.666l-5.076.295c.066-4.88 1.081-5.96 2.751-5.96zm16.768 1.048l1.965-.917v-1.703h-10.644v1.703l1.965.917 5.404 15.72h5.273l5.535-15.72 1.965-.917v-1.703h-7.205v1.703l1.965.917-3.177 10.087h-.131l-2.915-10.087zm28.656 7.107c0-7.696-2.653-10.152-8.155-10.152-5.469 0-9.039 3.504-9.039 9.563 0 6.223 3.242 9.694 9.53 9.694 3.373 0 6.124-1.507 6.976-2.686v-1.768c-1.277.393-2.587.622-4.912.622-3.341 0-5.043-1.703-5.338-5.273h10.938zm-8.253-8.155c1.507 0 2.325.786 2.325 5.666l-5.076.295c.065-4.88 1.081-5.96 2.751-5.96zm8.908-8.319v1.67l2.063.95v19.846l-1.965.917v1.703h10.022v-1.703l-1.965-.917v-23.678h-.491l-7.663 1.212zm20.338 6.288c-5.567 0-9.399 3.406-9.399 9.628 0 6.223 3.832 9.661 9.399 9.661 5.568 0 9.399-3.439 9.399-9.661 0-6.222-3.832-9.628-9.399-9.628zm.033 16.735c-2.031 0-3.046-1.048-3.046-7.107s1.015-7.107 3.046-7.107c2.031 0 2.98 1.048 2.98 7.107s-.95 7.107-2.98 7.107zm18.144-14.345v-2.391h-.491l-7.598 1.212v1.605l2.063.95v20.436l-1.965.917v1.703h10.349v-1.703l-2.293-.917v-5.502c.589.262 1.212.557 2.685.557 4.814 0 9.006-2.489 9.006-9.956 0-7.271-2.98-9.301-6.583-9.301-2.358 0-3.963 1.179-4.978 2.391h-.196zm1.998 14.312c-.851 0-1.507-.295-1.932-.59v-11.986c.524-.262 1.113-.491 2.129-.491 1.965 0 3.177 1.834 3.177 6.091 0 5.24-1.474 6.976-3.373 6.976zm27.936-6.517c0-7.696-2.653-10.152-8.155-10.152-5.469 0-9.039 3.504-9.039 9.563 0 6.223 3.242 9.694 9.53 9.694 3.373 0 6.124-1.507 6.976-2.686v-1.768c-1.277.393-2.587.622-4.913.622-3.34 0-5.043-1.703-5.338-5.273h10.938zm-8.253-8.155c1.507 0 2.325.786 2.325 5.666l-5.076.295c.066-4.88 1.081-5.96 2.751-5.96zm8.842-.884v1.67l2.031.95v12.412l-1.932.917v1.703h10.546v-1.703l-2.522-.917v-10.185c1.048-.491 2.423-.655 4.061-.655.524 0 1.179.066 1.539.164v-5.338c-.197-.066-.589-.098-.917-.098-1.998 0-3.635 1.31-4.716 3.734h-.196v-3.865h-.524l-7.369 1.212zm20.665 18.111c5.829 0 8.253-2.62 8.253-6.452 0-2.784-1.343-5.142-4.88-5.895l-2.161-.459c-2.031-.426-2.522-1.081-2.522-2.162 0-1.114.983-1.801 2.423-1.801.983 0 2.26.229 2.685.458l.786 2.522h2.555v-4.52c-1.441-.622-3.635-.95-5.797-.95-5.404 0-7.795 2.587-7.795 6.091 0 2.718 1.572 5.404 4.945 6.157l2.227.491c1.965.426 2.423.982 2.423 2.325 0 1.441-1.212 1.834-2.947 1.834-1.048 0-2.522-.197-2.947-.59l-1.048-3.046h-2.587v4.847c1.769.753 4.421 1.146 6.386 1.146z" fill="#0ABCD2"/>
</svg>
